img/player-phone.svg

<svg fill="none" height="12" viewBox="0 0 12 12" width="12" xmlns="http://www.w3.org/2000/svg"><rect fill="#008699" height="12" rx="6" width="12"/><path d="m7.62499 7.10403-.424.44523s-.80039.12494-1.78539-.91201c-.98499-1.03695-.8356-1.81425-.8356-1.81425l.36767-.38629c.23566-.24776.258-.64588.05233-.93671l-.20839-.19648c-.25467-.36-.74633-.40765-1.038-.10058l-.52333.55059c-.14433.15247-.24099.34941-.22933.56824.03.56012.26933 1.76472 1.60399 3.17014 1.41566 1.49013 2.74398 1.54943 3.28698 1.49578.172-.01694.32133-.10941.44166-.23647l.47333-.49836c.32-.33636.23-.91342-.17933-1.14883l-.19726-.11189c-.26867-.15459-.59533-.10906-.80533.11189z" fill="#fff"/></svg>

<svg width="12" height="12" viewBox="0 0 12 12" fill="none" xmlns="http://www.w3.org/2000/svg">
<rect width="12" height="12" rx="6" fill="#008699"/>
<path d="M7.62499 7.10403L7.20099 7.54926C7.20099 7.54926 6.4006 7.6742 5.4156 6.63725C4.43061 5.6003 4.58 4.823 4.58 4.823L4.94767 4.43671C5.18333 4.18895 5.20567 3.79083 5 3.5L4.79161 3.30352C4.53694 2.94352 4.04528 2.89587 3.75361 3.20294L3.23028 3.75353C3.08595 3.906 2.98929 4.10294 3.00095 4.32177C3.03095 4.88189 3.27028 6.08649 4.60494 7.49191C6.0206 8.98204 7.34892 9.04134 7.89192 8.98769C8.06392 8.97075 8.21325 8.87828 8.33358 8.75122L8.80691 8.25286C9.12691 7.9165 9.03691 7.33944 8.62758 7.10403L8.43032 6.99214C8.16165 6.83755 7.83499 6.88308 7.62499 7.10403Z" fill="white"/>
</svg>
